icons/solid/table.svg

<svg width="24" height="24" viewBox="0 0 24 24" fill="none" xmlns="http://www.w3.org/2000/svg">
<path fill-rule="evenodd" clip-rule="evenodd" d="M2 6C2 4.34315 3.34315 3 5 3H19C20.6569 3 22 4.34315 22 6V9H12H2V6ZM2 11V15H11V11H2ZM2 17V18C2 19.6569 3.34315 21 5 21H11V17H2ZM13 21H19C20.6569 21 22 19.6569 22 18V17H13V21ZM22 15V11H13V15H22Z" fill="currentColor"/>
</svg>

<svg width="24" height="24" fill="none" xmlns="http://www.w3.org/2000/svg"><path fill-rule="evenodd" clip-rule="evenodd" d="M2 6a3 3 0 013-3h14a3 3 0 013 3v3H2V6zm0 5v4h9v-4H2zm0 6v1a3 3 0 003 3h6v-4H2zm11 4h6a3 3 0 003-3v-1h-9v4zm9-6v-4h-9v4h9z" fill="currentColor"/></svg>
